icons/lines/whatsapp.svg

<svg xmlns="http://www.w3.org/2000/svg" width="24" height="24" viewBox="0 0 24 24" fill="none" stroke="currentColor" stroke-width="2" stroke-linecap="round" stroke-linejoin="round" >
  <path d="M6.9 20.6C8.4 21.5 10.2 22 12 22C17.5 22 22 17.5 22 12C22 6.5 17.5 2 12 2C6.5 2 2 6.5 2 12C2 13.8 2.5 15.5 3.3 17L2.44044 20.306C2.24572 21.0549 2.93892 21.7317 3.68299 21.5191L6.9 20.6Z" stroke-miterlimit="10"/>
  <path d="M16.5 14.8485C16.5 15.0105 16.4639 15.177 16.3873 15.339C16.3107 15.501 16.2116 15.654 16.0809 15.798C15.86 16.041 15.6167 16.2165 15.3418 16.329C15.0714 16.4415 14.7784 16.5 14.4629 16.5C14.0033 16.5 13.512 16.392 12.9937 16.1715C12.4755 15.951 11.9572 15.654 11.4434 15.2805C10.9251 14.9025 10.4339 14.484 9.9652 14.0205C9.501 13.5525 9.08187 13.062 8.70781 12.549C8.33826 12.036 8.04081 11.523 7.82449 11.0145C7.60816 10.5015 7.5 10.011 7.5 9.543C7.5 9.237 7.55408 8.9445 7.66224 8.6745C7.77041 8.4 7.94166 8.148 8.18052 7.923C8.46895 7.6395 8.78443 7.5 9.11793 7.5C9.24412 7.5 9.37031 7.527 9.48297 7.581C9.60015 7.635 9.70381 7.716 9.78493 7.833L10.8305 9.3045C10.9116 9.417 10.9702 9.5205 11.0108 9.6195C11.0513 9.714 11.0739 9.8085 11.0739 9.894C11.0739 10.002 11.0423 10.11 10.9792 10.2135C10.9206 10.317 10.835 10.425 10.7268 10.533L10.3843 10.8885C10.3348 10.938 10.3122 10.9965 10.3122 11.0685C10.3122 11.1045 10.3167 11.136 10.3257 11.172C10.3393 11.208 10.3528 11.235 10.3618 11.262C10.4429 11.4105 10.5826 11.604 10.7809 11.838C10.9837 12.072 11.2 12.3105 11.4344 12.549C11.6778 12.7875 11.9121 13.008 12.151 13.2105C12.3853 13.4085 12.5791 13.5435 12.7323 13.6245C12.7549 13.6335 12.7819 13.647 12.8135 13.6605C12.8495 13.674 12.8856 13.6785 12.9261 13.6785C13.0028 13.6785 13.0613 13.6515 13.1109 13.602L13.4534 13.2645C13.5661 13.152 13.6743 13.0665 13.7779 13.0125C13.8816 12.9495 13.9852 12.918 14.0979 12.918C14.1835 12.918 14.2737 12.936 14.3728 12.9765C14.472 13.017 14.5756 13.0755 14.6883 13.152L16.18 14.2095C16.2972 14.2905 16.3783 14.385 16.4279 14.4975C16.473 14.61 16.5 14.7225 16.5 14.8485Z" stroke-miterlimit="10"/>
  </svg>

<svg xmlns="http://www.w3.org/2000/svg" width="24" height="24" viewBox="0 0 24 24" fill="none" stroke="currentColor" stroke-width="2" stroke-linecap="round" stroke-linejoin="round">
  <path d="M16.5 14.849a1.14 1.14 0 0 1-.113.49 1.9 1.9 0 0 1-.306.459 2 2 0 0 1-.74.531 2.3 2.3 0 0 1-.878.171q-.69.001-1.47-.328a8 8 0 0 1-1.55-.892 13 13 0 0 1-1.478-1.26 13 13 0 0 1-1.257-1.471 8 8 0 0 1-.884-1.534q-.324-.77-.324-1.472a2.3 2.3 0 0 1 .162-.868 2 2 0 0 1 .519-.752q.434-.425.937-.423a.85.85 0 0 1 .365.081.73.73 0 0 1 .302.252l1.046 1.472a1.5 1.5 0 0 1 .18.315.7.7 0 0 1 .063.274.6.6 0 0 1-.095.32 1.5 1.5 0 0 1-.252.319l-.343.356a.24.24 0 0 0-.072.18.4.4 0 0 0 .014.103l.036.09a3.7 3.7 0 0 0 .419.576 15 15 0 0 0 .653.711 14 14 0 0 0 .717.662 3.5 3.5 0 0 0 .581.413l.082.037a.3.3 0 0 0 .297-.059l.342-.338a1.4 1.4 0 0 1 .325-.252.6.6 0 0 1 .32-.094.7.7 0 0 1 .275.059 1.7 1.7 0 0 1 .315.175l1.492 1.058a.7.7 0 0 1 .248.287 1 1 0 0 1 .072.351" />
  <path d="M6.9 20.6A10 10 0 0 0 12 22c5.5 0 10-4.5 10-10S17.5 2 12 2 2 6.5 2 12c0 1.8.5 3.5 1.3 5l-.86 3.306a1 1 0 0 0 1.243 1.213z" />
</svg>
